X: 876
T: The Scholar
B: jims roots
M:4/4
L:1/8
R: Reel
Q: 1/4=100
K:D
V:1 
%S:via PR
A2 | "D"dfaf "A"gfeg | "D"fdAG FGA=c | "G"BGFG EFGg |
"A"fdec dcBA | "D"dfaf "A"gfeg | "D"fdAG FGA=c |
"G"BGFG EFGg |  [1"A"fdec "D"d2 :|  [2"A"fdec "D"defg ||
|:"D"a2fd dfaf | dfaf bagf | "C"gfge =cege |
=cege agfe | "D"a^gaf dfaf | dfaf bagf |
"G"gfef gbag | [1"A"fdec "D"defg : | [2"A"fdec "D"d2 ||
|:fg | "D"a2fa dafa | dafa bagf | "C"g2eg cgeg | cgeg agfe |
"D"a2fa dafa | dafa bagf | "G"gfga gbag | "A"fedc "D"d2:|
% abcbook-tune_id 6298c287432a9ac6a366a28a


% abcbook-boost 0
% abcbook-tablature 
% abcbook-transpose 
% abcbook-lastupdated 1654178440225
% abcbook-soundfonts 
% abcbook-repeats 1
% Nottingham Music Database

